svgs/thin/bracket-curly-right.svg

<svg xmlns="http://www.w3.org/2000/svg" viewBox="0 0 256 512"><!-- Font Awesome Pro 6.0.0-alpha2 by @fontawesome - https://fontawesome.com License - https://fontawesome.com/license (Commercial License) --><path d="M231.938 256C197.109 278.703 176 317.203 176 359.547V408C176 438.875 150.875 464 120 464H72C67.578 464 64 467.578 64 472S67.578 480 72 480H120C159.703 480 192 447.703 192 408V359.547C192 318.469 214.828 281.531 251.578 263.156C254.281 261.797 256 259.031 256 256S254.281 250.203 251.578 248.844C214.828 230.469 192 193.531 192 152.453V104C192 64.297 159.703 32 120 32H72C67.578 32 64 35.578 64 40S67.578 48 72 48H120C150.875 48 176 73.125 176 104V152.453C176 194.797 197.109 233.297 231.938 256Z"/></svg>

<svg xmlns="http://www.w3.org/2000/svg" viewBox="0 0 256 512"><!--! Font Awesome Pro 6.3.0 by @fontawesome - https://fontawesome.com License - https://fontawesome.com/license (Commercial License) Copyright 2023 Fonticons, Inc. --><path d="M231.9 256C197.1 278.7 176 317.2 176 359.5V408c0 30.88-25.12 56-56 56h-48C67.58 464 64 467.6 64 472S67.58 480 72 480h48c39.7 0 72-32.3 72-72v-48.45c0-41.08 22.83-78.02 59.58-96.39C254.3 261.8 256 259 256 256s-1.719-5.797-4.422-7.156C214.8 230.5 192 193.5 192 152.5V104C192 64.3 159.7 32 120 32h-48C67.58 32 64 35.58 64 40S67.58 48 72 48h48c30.88 0 56 25.12 56 56v48.45C176 194.8 197.1 233.3 231.9 256z"/></svg>
